X: 20674
T: John Watt Henry's
R: reel
M: 4/4
K: Dmajor
A2 Ad B2 FA|DFAF EDB,D|A2 Ad BAFA|dBAF EDB, D:|
d2 fd edfd|defd BAFA|d2 fd edfe|dBAF EDB,D|
d2 fd edfe|defd e2 de|f2 ed BdAB|dBAF EDB,D|

